X: 1
T:Friendly Visit
M:4/4
L:1/8
R:Hornpipe
K:G
BA|(3GFG DG BGBd|(3cBc AB cdef|g2df ecAG|FGAB cAFD|(3GFG DG BGBd|
(3cBc AB cdef|gdBG FAdc|B2G2 G2:|
(3GBd|g2dB GBdg|e2cA FGAg|f2ed ^cdeg|f2 (3efe dcBA|(3GFG DG BGBd|(3cBc A
B cd
ef|gdBG FAdc|B2G2 G2:|
